X: 1
T:8 - Poma Doro
C:trad
O:Belgium
S:Manuscrit dit du Cinquantenaire
S:Receuil de Contredances Angloises - page 6
Z:ABC transcription Olivier VIENNE troubadourwallon@gmail.com
M:6/8
L:1/8
K:Gmaj
zBc|d>ed g2d|"+"e2d g2G|A>Bc B>cA|"+"B2A D>Bc|
d>ed g2d|e2d g2G|A>Bc B2A|G3:|
|:ga|b>ag g>fe|a2A A2a|gaf e2d|"+"d2^c A2g|
f>ga A2g|f>ga A2g|f>ga A2"+"^c|d2D zd=c|
BAG d2=F|"+"FE2 C>ed|c>BA d2G|"+"G2F D2c|
B>cd D2c|B>cd D2c|B>cd D2F|G3:|]





